X: 33
T: Miz Kerzu
R: waltz
C: Florence Pinvidic
M: 3/4
L: 1/8
K: Amin
"Am"A4 B2| c3 B A2 |"Dm" e2 d4- | d2 e2 d2 | "F"c3 B A2 | "G"B2 c2 d2 | "Em"B6-| B6|
"Am"A4 B2| "F"c3 B A2 | "Dm"F6- | F2 A2 F2 | "E"E2 B3 E | B4 c2  |1 "E7"B6-| B6:|2 "Am"A6-|A6 ||
|: "Am"c2 dc Bc | A2 Bc de | "F"f4 f2 | a4 f2 | "C"e4 e2 | g4 e2 | "G"d6 |"Em"B6 |
"Am"A4 B2| "F"c3 B A2 | "Dm"F6- | F2 A2 F2 | "E"E2 B3 E | B4 c2  |1 "E7"B6-| B6:|2 "Am"A6-|A6 ||

